build/system/ArrowUpDownSolid.svg

<svg xmlns="http://www.w3.org/2000/svg" fill="none" viewBox="0 0 24 24" focusable="false"><path d="M0 0H24V24H0z" transform="matrix(1 0 0 -1 0 24)"/><path fill="#74767B" fill-rule="evenodd" d="M12 21C16.9706 21 21 16.9706 21 12C21 7.02944 16.9706 3 12 3C7.02944 3 3 7.02944 3 12C3 16.9706 7.02944 21 12 21ZM8.61218 14.363C8.61218 14.183 8.68218 14.013 8.82218 13.883C9.09218 13.643 9.50218 13.663 9.74218 13.923L11.99 16.4227L14.1463 13.9271C14.3863 13.6571 14.7963 13.6471 15.0663 13.8871C15.3263 14.1271 15.3463 14.5371 15.1063 14.8071L12.51 17.7927C12.23 18.1027 11.75 18.1027 11.47 17.7927L8.78218 14.803C8.66218 14.673 8.61218 14.523 8.61218 14.363ZM15.1212 10.1391C15.2612 10.0091 15.3312 9.8391 15.3312 9.6591C15.3312 9.4991 15.2812 9.3491 15.1612 9.2191L12.4733 6.22935C12.1933 5.91935 11.7133 5.91935 11.4333 6.22935L8.83702 9.21495C8.59702 9.48495 8.61702 9.89495 8.87702 10.1349C9.14702 10.3749 9.55702 10.3649 9.79702 10.0949L11.9533 7.59934L14.2012 10.0991C14.4412 10.3591 14.8512 10.3791 15.1212 10.1391Z"/></svg>

<svg xmlns="http://www.w3.org/2000/svg" fill="none" viewBox="0 0 24 24" focusable="false"><path fill="#74767B" fill-rule="evenodd" d="M12 21a9 9 0 0 0 9-9c0-4.98-4.03-9-9-9-4.98 0-9 4.02-9 9 0 4.97 4.02 9 9 9m-3.39-6.64c0-.18.07-.35.21-.48.27-.24.68-.22.92.04l2.25 2.5 2.15-2.5a.65.65 0 0 1 .92-.04c.26.24.28.65.04.92l-2.59 2.99c-.28.31-.76.31-1.04 0L8.78 14.8a.63.63 0 0 1-.17-.44m6.51-4.23c.14-.13.21-.3.21-.48 0-.16-.05-.31-.17-.44l-2.69-2.99a.7.7 0 0 0-1.04 0l-2.6 2.99c-.24.27-.22.68.04.92.27.24.68.23.92-.04l2.16-2.5 2.25 2.5c.24.26.65.28.92.04"/></svg>
